X:1
T:RVW2/1/29 Oats and Beans-0
T:RVW2/1/29 Oats and Beans-0
T:Singing games heard at Stainton, Sept. 1907 (2 of 4)
T:Transcribed by Simon Furey and Lewis Jones
C:Transcribed by Simon Furey and Lewis Jones
L:1/8
Q:1/4=126
M:6/8
K:G
V:1 treble 
V:1
"^(editorial suggestion)" d2 d d2 B | c2 e d3 :| g2 g f2 f | e2 e d2 d | c2 c B2 B | A2 A G3 | %6
 d2 d c2 B | A3 G3 |] %8

